X: 30
T:Lady Mary Ramsey'Reel. JMT.030
M:4/4
L:1/8
Q:180
S:J.Moore,Tyneside,1841.(23)
R:Reel
O:England
A:Northumbria
Z:vmp.Chris Partington
K:D
F|D3B A<FF>B|A<FB<G A>FFd|D3B AFFB|A<DAF E/E/E E:|!
|g|fddf ecce|dBBd AFF e/g/|fddf ecdA|(Bd)AF E/E/E E e/g/|!
fddf ecce|dfBd AFFc|dfce BdAB|FdAF E/E/E E||
